findly-builder/apps/searchassist/src/assets/icons/carrot_left.svg

<svg width="16" height="16" viewBox="0 0 16 16" fill="none" xmlns="http://www.w3.org/2000/svg">
<path fill-rule="evenodd" clip-rule="evenodd" d="M4.77811 7.4447C4.58138 7.64143 4.5698 7.9532 4.74339 8.16347L4.77811 8.20165L9.46509 12.8886C9.67411 13.0977 10.013 13.0977 10.222 12.8886C10.4188 12.6919 10.4303 12.3801 10.2568 12.1699L10.222 12.1317L5.91362 7.82317L10.222 3.51467C10.4188 3.31794 10.4303 3.00617 10.2568 2.7959L10.222 2.75772C10.0253 2.56099 9.71353 2.54942 9.50327 2.723L9.46509 2.75772L4.77811 7.4447Z" fill="#202124"/>
</svg>

<svg width="16" height="16" fill="none" xmlns="http://www.w3.org/2000/svg"><path fill-rule="evenodd" clip-rule="evenodd" d="M4.778 7.445a.535.535 0 0 0-.035.718l.035.039 4.687 4.687a.535.535 0 0 0 .792-.72l-.035-.037-4.308-4.309 4.308-4.308a.535.535 0 0 0 .035-.72l-.035-.037a.535.535 0 0 0-.719-.035l-.038.035-4.687 4.687Z" fill="#202124"/></svg>
